app/assets/v2/images/eth_dollar.svg

<?xml version="1.0" encoding="UTF-8"?>
<svg width="81px" height="55px" viewBox="0 0 81 55" version="1.1" xmlns="http://www.w3.org/2000/svg" xmlns:xlink="http://www.w3.org/1999/xlink">
    <!-- Generator: Sketch 51.3 (57544) - http://www.bohemiancoding.com/sketch -->
    <title>Group 3</title>
    <desc>Created with Sketch.</desc>
    <defs></defs>
    <g id="Page-1" stroke="none" stroke-width="1" fill="none" fill-rule="evenodd">
        <g id="Group-3" transform="translate(1.000000, 0.000000)">
            <g id="Group-2" transform="translate(0.000000, 5.000000)" stroke-width="2">
                <polyline id="Stroke-16" stroke="#3E00FF" points="48.0889569 44.9387755 0 44.9387755 0 0 46.3078844 0"></polyline>
                <polyline id="Stroke-1" stroke="#9573FF" points="41.590227 -4.81781584e-12 78.9001084 -4.81781584e-12 78.9001084 44.9763497 41.2124277 44.9763497"></polyline>
                <path d="M46.0928468,6.97001911 L12.256507,6.97001911 C12.256507,9.83919022 9.86481203,12.164656 6.91392702,12.164656 L6.91392702,33.0193915 C10.475647,33.0193915 12.256507,35.2686693 12.256507,38.1378404 L46.0928468,38.1378404" id="Stroke-3" stroke="#3E00FF"></path>
                <path d="M41.3035773,6.97001911 L66.3827372,6.97001911 C66.3827372,10.4184982 68.7698346,12.2444678 71.715047,12.2444678 L71.715047,22.4881749" id="Stroke-5" stroke="#9573FF"></path>
                <path d="M48.5725624,14.863846 L58.9179995,14.863846 C58.9179995,18.4187192 61.2336532,20.3010245 64.0907181,20.3010245 L64.0907181,45.6306595" id="Stroke-5-Copy" stroke="#9573FF" transform="translate(56.331640, 30.247253) rotate(-270.000000) translate(-56.331640, -30.247253) "></path>
            </g>
            <rect id="Rectangle" fill="#FFFFFF" fill-rule="nonzero" x="38" y="0" width="4" height="55"></rect>
            <ellipse id="Oval" fill="#DFD4FF" fill-rule="nonzero" cx="39" cy="28" rx="13" ry="12"></ellipse>
            <circle id="Oval" fill="#A2F8D3" fill-rule="nonzero" cx="60.5" cy="27.5" r="2.5"></circle>
            <circle id="Oval-Copy" fill="#A2F8D3" fill-rule="nonzero" cx="16.5" cy="27.5" r="2.5"></circle>
            <g id="Group-23" transform="translate(26.000000, 15.000000)">
                <path d="M9.11317707,8.01648255 C9.11438615,8.01569592 9.11559523,8.01451598 9.11680431,8.01372935 C9.47549722,7.75650223 9.58310509,7.30537147 9.32154139,6.95374906 L6.0562268,2.56751522 C5.79466309,2.21707276 5.29168696,2.13841003 4.93017286,2.39367059 C4.57027087,2.64932446 4.49006875,3.14096653 4.75203548,3.49298224 L8.02057428,7.88354254 C8.28213799,8.23477163 8.75408114,8.27370968 9.11317707,8.01648255" id="Fill-1" fill="#FFFFFF"></path>
                <path d="M5.87603536,11.5777832 C6.30202433,11.7085679 6.71017932,11.4749964 6.84920331,11.0726704 C6.84960863,11.0711362 6.85001395,11.0696021 6.85082458,11.0684515 C6.99065921,10.6657419 6.80583431,10.2503758 6.37984534,10.1195911 L1.06126566,8.48420671 C0.634871373,8.35380551 0.177672937,8.57433694 0.0398648973,8.97666297 C-0.0983484598,9.37975606 0.134303936,9.81238119 0.560292905,9.94316592 L5.87603536,11.5777832 Z" id="Fill-3" fill="#FFFFFF"></path>
                <g id="Group-7" transform="translate(19.067807, 8.446701)">
                    <polygon id="Clip-6" points="0.0419775202 0.0314372531 6.87205239 0.0314372531 6.87205239 3.25452841 0.0419775202 3.25452841"></polygon>
                    <path d="M1.05276471,3.2174592 L6.31719035,1.55416025 C6.73906693,1.42108073 6.96947336,0.980864582 6.83259428,0.570698652 C6.6961166,0.161313247 6.24413465,-0.0630877136 5.82105386,0.0696015501 L0.553818381,1.73368102 C0.1319418,1.86676055 -0.0510988475,2.28980514 0.087787258,2.69919055 C0.0881886629,2.70036133 0.0885900678,2.70192238 0.0889914728,2.70348343 C0.226673363,3.11286884 0.630888127,3.35053873 1.05276471,3.2174592" id="Fill-5" fill="#FFFFFF"></path>
                </g>
                <path d="M17.8085888,7.88324961 L21.0773015,3.49263299 C21.3392499,3.14100608 21.2594564,2.64896439 20.8991766,2.39330723 C20.5380909,2.13883004 20.034747,2.21670714 19.7732016,2.56754742 L16.5077128,6.95383753 C16.2465704,7.30507112 16.3537678,7.75660099 16.7124355,8.01383141 C16.7136445,8.01422473 16.7148535,8.01540469 16.7164655,8.01619133 C17.0751333,8.27381507 17.5470434,8.23487652 17.8085888,7.88324961" id="Fill-8" fill="#FFFFFF"></path>
                <path d="M13.793733,6.11290831 L13.793733,0.774030808 C13.793733,0.346378787 13.4302276,0 12.982337,0 C12.5344463,0 12.1709409,0.346378787 12.1709409,0.774030808 L12.1709409,6.11290831 C12.1709409,6.54056033 12.5332292,6.86294416 12.9811199,6.86294416 L12.9831484,6.86294416 C13.4314447,6.86294416 13.793733,6.54056033 13.793733,6.11290831" id="Fill-10" fill="#FFFFFF"></path>
                <g id="Group-14" transform="translate(19.067807, 14.253807)">
                    <polygon id="Clip-13" points="0.0417884031 0.0358776537 6.87205239 0.0358776537 6.87205239 3.28821084 0.0417884031 3.28821084"></polygon>
                    <path d="M1.05276471,0.0732838546 C0.630888127,-0.0610054855 0.226673363,0.178825037 0.0889914728,0.591932127 C0.0885900678,0.593507369 0.0881886629,0.59508261 0.0873858531,0.596657852 C-0.0510988475,1.00976494 0.1319418,1.43626159 0.553818381,1.57055093 L5.82105386,3.24936458 C6.24413465,3.38404773 6.6961166,3.15721295 6.83259428,2.74371205 C6.96947336,2.33021115 6.73906693,1.88599304 6.31719035,1.75130989 L1.05276471,0.0732838546 Z" id="Fill-12" fill="#FFFFFF"></path>
                </g>
                <path d="M16.7162349,17.9836428 C16.715026,17.9844295 16.713817,17.9856094 16.712608,17.986396 C16.3539448,18.2436251 16.2463458,18.6947593 16.5078879,19.0463843 L19.7733352,23.432258 C20.0348772,23.7834897 20.5382147,23.8613664 20.8992959,23.6061039 C21.2591681,23.3508415 21.3393636,22.8588024 21.0774185,22.5071773 L17.8087473,18.1165838 C17.5472052,17.7649588 17.0753011,17.7264138 16.7162349,17.9836428" id="Fill-15" fill="#FFFFFF"></path>
                <path d="M5.87603536,14.4222504 L0.560292905,16.0564965 C0.134303936,16.1876658 -0.0983484598,16.6202942 0.0398648973,17.0230068 C0.177672937,17.4257194 0.634871373,17.646636 1.06126566,17.5154667 L6.37984534,15.8804536 C6.80583431,15.7492843 6.99065921,15.3339151 6.85082458,14.931586 C6.85001395,14.9300519 6.84960863,14.9285177 6.84920331,14.9273671 C6.71017932,14.5246545 6.30202433,14.2914647 5.87603536,14.4222504" id="Fill-17" fill="#FFFFFF"></path>
                <path d="M8.02060844,18.1167388 L4.75214687,22.5071855 C4.49018632,22.8584055 4.56998354,23.3508215 4.93028004,23.6060754 C5.29178559,23.8617227 5.79515285,23.783062 6.05630737,23.431842 L9.32154481,19.0461149 C9.58310233,18.6948949 9.475497,18.2433825 9.11681256,17.986162 C9.11560352,17.9857687 9.11439447,17.9845888 9.11318542,17.9838022 C8.75409796,17.7261885 8.28216597,17.7651255 8.02060844,18.1167388" id="Fill-19" fill="#FFFFFF"></path>
                <path d="M12.1709409,19.8870494 L12.1709409,25.2260128 C12.1709409,25.6532538 12.5344463,26 12.982337,26 C13.4302276,26 13.793733,25.6532538 13.793733,25.2260128 L13.793733,19.8870494 C13.793733,19.4598085 13.4314447,19.1370558 12.9831484,19.1370558 L12.9811199,19.1370558 C12.5332292,19.1370558 12.1709409,19.4598085 12.1709409,19.8870494" id="Fill-21" fill="#FFFFFF"></path>
            </g>
            <g id="Group" transform="translate(34.000000, 18.000000)" fill-rule="nonzero" stroke-width="2">
                <path d="M1.40091365,9.23190678 L0.494631049,8.7161158 L0.494648677,8.7161857 L-0.49458481,10.4543603 L1.47170639,11.57342 L2.46096445,9.83521157 L1.40091064,9.23191159 Z M0.494648677,8.7161857 L0.847633374,10.1158012 L1.40091064,9.23191159 L0.49466921,8.71614962 L0.494648677,8.7161857 Z M5.99994732,1.88470761 L6.84757203,0.530582381 L5.15231016,0.530590177 L5.99994732,1.88470761 Z M10.5990749,9.2319065 L11.1523715,10.115809 L11.5053739,8.71611299 L10.5990749,9.2319065 Z M6.00001692,11.8493254 L5.50539499,12.130825 L6.49464089,12.1308214 L6.00001692,11.8493254 Z" id="Combined-Shape" stroke="#9C7CFF"></path>
                <path d="M3.66774166,14.1531982 L5.99845462,17.2036059 L8.33109873,14.1524829 L5.99807597,15.4318881 L3.66774166,14.1531982 Z M5.99845462,17.2036059 L6.80860606,18.2639218 L6.80860606,18.4681507 L6.32564837,18.8371623 L5.88384114,19 L5.11252846,18.4103161 L5.11252846,18.3624066 L5.99845462,17.2036059 Z" id="Combined-Shape" stroke="#9472FF"></path>
            </g>
        </g>
    </g>
</svg>

<svg height="55" viewBox="0 0 81 55" width="81" xmlns="http://www.w3.org/2000/svg"><g fill="none" fill-rule="evenodd"><g stroke-width="2" transform="translate(1 5)"><path d="m48.0889569 44.9387755h-48.0889569v-44.9387755h46.3078844" stroke="#3e00ff"/><path d="m41.590227 0h37.3098814v44.9763497h-37.6876807" stroke="#9573ff"/><path d="m46.0928468 6.97001911h-33.8363398c0 2.86917111-2.39169497 5.19463689-5.34257998 5.19463689v20.8547355c3.56171998 0 5.34257998 2.2492778 5.34257998 5.1184489h33.8363398" stroke="#3e00ff"/><g stroke="#9573ff"><path d="m41.3035773 6.97001911h25.0791599c0 3.44847909 2.3870974 5.27444869 5.3323098 5.27444869v10.2437071"/><path d="m48.5725624 14.863846h10.3454371c0 3.5548732 2.3156537 5.4371785 5.1727186 5.4371785v25.329635" transform="matrix(0 1 -1 0 86.578893 -26.084387)"/></g></g><g fill-rule="nonzero"><path d="m39 0h4v55h-4z" fill="#fff"/><ellipse cx="40" cy="28" fill="#dfd4ff" rx="13" ry="12"/><circle cx="61.5" cy="27.5" fill="#a2f8d3" r="2.5"/><circle cx="17.5" cy="27.5" fill="#a2f8d3" r="2.5"/></g><g transform="translate(27 15)"><path d="m9.11317707 8.01648255c.00120908-.00078663.00241816-.00196657.00362724-.0027532.35869291-.25722712.46630078-.70835788.20473708-1.05998029l-3.26531459-4.38623384c-.26156371-.35044246-.76453984-.42910519-1.12605394-.17384463-.35990199.25565387-.44010411.74729594-.17813738 1.09931165l3.2685388 4.3905603c.26156371.35122909.73350686.39016714 1.09260279.13294001" fill="#fff"/><path d="m5.87603536 11.5777832c.42598897.1307847.83414396-.1027868.97316795-.5051128.00040532-.0015342.00081064-.0030683.00162127-.0042189.13983463-.4027096-.04499027-.8180757-.47097924-.9488604l-5.31857968-1.63538439c-.42639429-.1304012-.88359272.09013023-1.02140076.49245626-.13821336.40309309.09443904.83571822.520428.96650295z" fill="#fff"/><g transform="translate(19.067807 8.446701)"><path d="m.04197752.03143725h6.83007487v3.22309116h-6.83007487z"/><path d="m1.05276471 3.2174592 5.26442564-1.66329895c.42187658-.13307952.65228301-.57329567.51540393-.9834616-.13647768-.4093854-.58845963-.63378636-1.01154042-.5010971l-5.26723548 1.66407947c-.42187658.13307953-.60491723.55612412-.46603112.96550953.0004014.00117078.00080281.00273183.00120421.00429288.13768189.40938541.54189666.6470553.96377324.51397577" fill="#fff"/></g><path d="m17.8085888 7.88324961 3.2687127-4.39061662c.2619484-.35162691.1821549-.8436686-.1781249-1.09932576-.3610857-.25447719-.8644296-.17660009-1.125975.17424019l-3.2654888 4.38629011c-.2611424.35123359-.153945.80276346.2047227 1.05999388.001209.00039332.002418.00157328.00403.00235992.3586678.25762374.8305779.21868519 1.0921233-.13294172" fill="#fff"/><path d="m13.793733 6.11290831v-5.3388775c0-.42765202-.3635054-.77403081-.811396-.77403081-.4478907 0-.8113961.34637879-.8113961.77403081v5.3388775c0 .42765202.3622883.75003585.810179.75003585h.0020285c.4482963 0 .8105846-.32238383.8105846-.75003585" fill="#fff"/><g transform="translate(19.067807 14.253807)"><path d="m.0417884.03587765h6.83026399v3.25233319h-6.83026399z"/><path d="m1.05276471.07328385c-.42187658-.13428934-.82609135.10554119-.96377324.51864828-.0004014.00157524-.00080281.00315048-.00160562.00472572-.1384847.41310709.04455595.83960374.46643253.97389308l5.26723548 1.67881365c.42308079.13468315.87506274-.09215163 1.01154042-.50565253.13687908-.4135009-.09352735-.85771901-.51540393-.99240216z" fill="#fff"/></g><g fill="#fff"><path d="m16.7162349 17.9836428c-.0012089.0007867-.0024179.0019666-.0036269.0027532-.3586632.2572291-.4662622.7083633-.2047201 1.0599883l3.2654473 4.3858737c.261542.3512317.7648795.4291084 1.1259607.1738459.3598722-.2552624.4400677-.7473015.1781226-1.0989266l-3.2686712-4.3905935c-.2615421-.351625-.7334462-.39017-1.0925124-.132941"/><path d="m5.87603536 14.4222504-5.31574246 1.6342461c-.42598896.1311693-.65864136.5637977-.520428.9665103.13780804.4027126.59500647.6236292 1.02140076.4924599l5.31857968-1.6350131c.42598897-.1311693.61081387-.5465385.47097924-.9488676-.00081063-.0015341-.00121595-.0030683-.00162127-.0042189-.13902399-.4027126-.54717898-.6359024-.97316795-.5051167"/><path d="m8.02060844 18.1167388-3.26846157 4.3904467c-.26196055.35122-.18216333.843636.17813317 1.0988899.36150555.2556473.86487281.1769866 1.12602733-.1742334l3.26523744-4.3857271c.26155752-.35122.15395219-.8027324-.20473225-1.0599529-.00120904-.0003933-.00241809-.0015732-.00362714-.0023598-.35908746-.2576137-.83101945-.2186767-1.09257698.1329366"/><path d="m12.1709409 19.8870494v5.3389634c0 .427241.3635054.7739872.8113961.7739872.4478906 0 .811396-.3467462.811396-.7739872v-5.3389634c0-.4272409-.3622883-.7499936-.8105846-.7499936h-.0020285c-.4478907 0-.810179.3227527-.810179.7499936"/></g></g><g fill-rule="nonzero" stroke-width="2" transform="translate(35 18)"><path d="m1.40091365 9.23190678-.9062826-.51579098.00001763.0000699-.98923349 1.7381746 1.9662912 1.1190597.98925806-1.73820843-1.06005381-.60329998zm-.90626497-.51572108.35298469 1.3996155.55327727-.88388961-.90624143-.51576197zm5.50529864-6.83147809.84762471-1.35412523-1.69526187.0000078zm4.59912758 7.34719889.5532966.8839025.3530024-1.39969601zm-4.59905798 2.6174189-.49462193.2814996.9892459-.0000036z" stroke="#9c7cff"/><path d="m3.66774166 14.1531982 2.33071296 3.0504077 2.33264411-3.051123-2.33302276 1.2794052zm2.33071296 3.0504077.81015144 1.0603159v.2042289l-.48295769.3690116-.44180723.1628377-.77131268-.5896839v-.0479095z" stroke="#9472ff"/></g></g></svg>
